X:1
T:William Tell Overture (Finale)
C:Gioachino Rossini
M:2/4
L:1/8
Q:1/4=168
K:E
% A section - 16 bars, the famous galloping finale
|: E |(3GEG A2|(3GEG c2|(3AGA B2|E2 E2|
(3GEG A2|(3GEG c2|(3BAG E2|E4|
(3ece (3dcd|(3cBc (3ABA|(3GEG (3AGA|(3BAB B2|
(3EGB (3Bce|(3ece (3dcB|(3AGE (3GEA|E4 :|]
